X:8030
T:Westville Polka
O:england
S:Jehile Kirkhuff, Susquehanna Co., PA
Q:400
M:C
L:1/8
K:G
B>A | G2DG B2GB | d2Bd g3g | f2 e2 ed^cd | e2 d2 dcBA |
| G2DG B2GB | d2Bd g3g | f2 e2 ecAF | G2B2G2:|
K:D
|: zG | A2f2 f3A | G2e2 e3e | d2c2 BA^GA | B2A2 A2 z2 |
| A2f2 f3A | G2e2 e3d | d2c2 B2c2 |d6 :|


